X:1
T:Lauda Sion
T:Lauda Sion
T:André Vierendeels (12/09/10)
C:André Vierendeels
C:(12/09/10)
%%score [ 1 2 3 4 ]
L:1/8
Q:1/4=120
M:2/2
K:D
V:1 treble nm="Soprano" snm="S"
V:2 treble nm="Alto" snm="A"
V:3 treble-8 nm="Tenor" snm="T"
V:4 bass nm="Bass" snm="B"
V:1
 d4 A4 | B4 B4 | A4 G4 | F4 !fermata!D4 | F4 A4 | G4 F4 | E6 E2 | D4 !fermata!D4 | A4 B2 c2 | %9
w: Lau- da|Si- on|sal- va-|to- rem,|lau- da|du- cem|et pa-|sto- rem,|in hym- *|
 d4 c4 | B6 B2 | !fermata!A8 | F4 A4 | B4 A4 | G4 A4 | F4 !fermata!D4 | F2 ^G2 A4 | B4 c4 | B6 A2 | %19
w: nis et|can- ti-|cis.|Quan- tum|po- tes|tan- tum|au- de|qui- * a|ma- jor|o- mni|
 A4 !fermata!A4 | d2 e2 d2 =c2 | B4 A4 | G4 F4 | E6 E2 | !fermata!D8 |] %25
w: lau- de,|nec _ _ _|_ lau-|da- re|suf- fi-|cis.|
V:2
 B4 F4 | D4 G4 | E4 E4 | C4 !fermata!B,4 | D4 E4 | E4 D4 | C2 D2 E2 C2 | A,4 !fermata!A,4 | F4 F4 | %9
w: Lau- de|Si- on|sal- va-|to- rem,|lau- da|du- cem|et _ _ pa-|sto- rem,|in hym-|
 G4 E4 | ^G2 A2 B2 G2 | !fermata!E8 | D4 E4 | G4 F4 | D4 F4 | D4 !fermata!A,4 | C2 E2 E4 | G4 A4 | %18
w: nis et|can- * * ti-|cis.|Quan- tum|po- tes|tan- tum|au- de|qui- * a|ma- jor|
 ^G2 A2 B2 E2 | F4 !fermata!E4 | F2 G2 F4 | G2 F2 E2 F2 | D4 D4 | C2 D2 E2 C2 | !fermata!A,8 |] %25
w: o- * * *|lau- de,|nec _ _|_ _ lau- *|da- re|suf- * * fi-|cis|
V:3
 d4 d4 | B4 B4 | c4 B4 | A4 !fermata!F4 | A4 c4 | A4 A4 | A4 A4 | F4 !fermata!F4 | c4 d4 | B4 c4 | %10
w: Lau- da|Si- on|sal- va-|to- rem,|lau- da|du- cem|et pa-|sto- rem,|in hym-|nis et|
 e6 d2 | !fermata!c8 | A4 c4 | d4 d4 | B4 c4 | B4 !fermata!F4 | A2 B2 c4 | d4 A4 | B6 G2 | %19
w: can- ti-|cis.|Quan- tum|po- tes|tan- tum|au- de|qui- * a|ma- jor-|o- mni|
 d4 !fermata!c4 | A4 d2 A2 | d4 c2 A2 | B4 A4 | A4 A4 | !fermata!F8 |] %25
w: lau- de,|nec _ _|_ lau- *|da- re|suf- fi-|cis.|
V:4
 G,4 D,4 | G,4 E,4 | A,4 E,4 | F,4 !fermata!B,,4 | D,4 A,,4 | C,4 D,4 | A,,4 A,,4 | %7
w: Lau- da|Si- on|sal- va-|to- rem,|lau- da|du- cem|et pa-|
 D,4 !fermata!D,4 | F,4 B,4 | G,4 A,4 | E,4 E,4 | !fermata!A,8 | D,4 A,4 | G,4 D,4 | G,4 F,4 | %15
w: sto- rem,|in hym-|nis et|can- ti-|cis.|Quan- tum|po- tes|tan- tum|
 B,,4 !fermata!D,4 | F,2 E,2 A,4 | G,4 F,4 | E,6 C,2 | D,4 !fermata!A,4 | D,2 C,2 D,4 | %21
w: au- de|qui- * a|ma- jor|o- mni|lau- de,|nec _ _|
 G,2 B,2 A,2 D,2 | G,4 D,4 | A,,4 A,,4 | !fermata!D,8 |] %25
w: _ _ lau- *|da- re|suf- fi-|cis.|

